;FLAVOR:Marlin
;TIME:32871
;Filament used: 23.9591m
;Layer height: 0.2
;MINX:91.374
;MINY:13.875
;MINZ:0.2
;MAXX:205.626
;MAXY:196.451
;MAXZ:14
;Generated with Cura_SteamEngine 4.5.0
M104 S200
M105
M109 S200
M82 ;absolute extrusion mode
; -- START GCODE --
G21                     ;set units to millimetres
G90                     ;set to absolute positioning
M106 S0                 ;set fan speed to zero (turned off)
G28 X0 Y0               ;move to the X/Y origin (Home)
G28 Z0                  ;move to the Z origin (Home)
G1 Z15.0 F1200          ;move Z to position 15.0 mm
G92 E0                  ;zero the extruded length
G1 E20 F200             ;extrude 20mm of feed stock
G92 E0                  ;zero the extruded length again
G1 F7200                ;set feedrate to 120 mm/s
; -- end of START GCODE --
G92 E0
G92 E0
G1 F1500 E-6.5
;LAYER_COUNT:70
;LAYER:0
M107
G0 F3600 X91.535 Y20.671 Z0.2
;TYPE:SKIRT
G1 F1500 E0
G1 F1200 X91.733 Y19.907 E0.02625
G1 X91.981 Y19.227 E0.05032
G1 X92.353 Y18.441 E0.07925
G1 X92.765 Y17.767 E0.10552
G1 X93.243 Y17.139 E0.13177
G1 X93.843 Y16.503 E0.16085
G1 X94.333 Y16.039 E0.1833
G1 X94.933 Y15.526 E0.20955
G1 X95.582 Y15.076 E0.23582
G1 X96.273 Y14.694 E0.26208
G1 X96.834 Y14.447 E0.28247
G1 X97.654 Y14.167 E0.31129
G1 X98.424 Y13.992 E0.33755
G1 X99.208 Y13.895 E0.36383
G1 X99.767 Y13.875 E0.38243
G1 X192.792 Y13.878 E3.47645
G1 X195.849 Y13.879 E3.57813
G1 X196.637 Y13.919 E3.60437
G1 X197.418 Y14.039 E3.63065
G1 X198.182 Y14.237 E3.6569
G1 X198.743 Y14.437 E3.67671
G1 X199.535 Y14.797 E3.70565
G1 X200.216 Y15.198 E3.73193
G1 X200.852 Y15.665 E3.75818
G1 X201.365 Y16.123 E3.78105
G1 X202.111 Y16.85 E3.8157
G1 X202.746 Y17.548 E3.84708
G1 X203.423 Y18.39 E3.88302
G1 X203.937 Y19.11 E3.91244
G1 X204.394 Y19.833 E3.94089
G1 X204.782 Y20.521 E3.96716
G1 X205.098 Y21.245 E3.99343
G1 X205.339 Y21.997 E4.0197
G1 X205.503 Y22.77 E4.04598
G1 X205.588 Y23.555 E4.07224
G1 X205.626 Y175.598 E9.12921
G1 X205.625 Y187.76 E9.53372
G1 X205.585 Y188.548 E9.55996
G1 X205.465 Y189.329 E9.58625
G1 X205.267 Y190.093 E9.6125
G1 X205.019 Y190.773 E9.63657
G1 X204.647 Y191.559 E9.66549
G1 X204.235 Y192.233 E9.69177
G1 X203.757 Y192.861 E9.71802
G1 X203.173 Y193.481 E9.74635
G1 X202.69 Y193.941 E9.76853
G1 X201.968 Y194.55 E9.79995
G1 X201.526 Y194.879 E9.81827
G1 X200.87 Y195.318 E9.84453
G1 X200.172 Y195.688 E9.8708
G1 X199.441 Y195.986 E9.89706
G1 X198.683 Y196.208 E9.92333
G1 X197.907 Y196.353 E9.94958
G1 X196.932 Y196.422 E9.98209
G1 X193.459 Y196.45 E10.09761
G1 X101.574 Y196.451 E13.15372
G1 X100.785 Y196.411 E13.17999
G1 X100.005 Y196.292 E13.20624
G1 X99.24 Y196.094 E13.23252
G1 X98.5 Y195.82 E13.25876
G1 X97.791 Y195.472 E13.28503
G1 X97.054 Y195.008 E13.314
G1 X96.573 Y194.666 E13.33363
G1 X95.954 Y194.176 E13.35989
G1 X94.873 Y193.134 E13.40982
G1 X94.254 Y192.452 E13.44046
G1 X93.577 Y191.61 E13.47639
G1 X93.063 Y190.89 E13.50582
G1 X92.606 Y190.167 E13.53426
G1 X92.218 Y189.479 E13.56054
G1 X91.902 Y188.755 E13.58681
G1 X91.661 Y188.003 E13.61307
G1 X91.497 Y187.23 E13.63936
G1 X91.412 Y186.445 E13.66562
G1 X91.374 Y34.402 E18.72259
G1 X91.375 Y22.24 E19.1271
G1 X91.415 Y21.452 E19.15334
G1 X91.535 Y20.671 E19.17962
G0 F3600 X91.935 Y20.712
G1 F1200 X92.132 Y19.969 E19.20519
G1 X92.35 Y19.382 E19.22602
G1 X92.714 Y18.615 E19.25425
G1 X93.118 Y17.96 E19.27985
G1 X93.588 Y17.351 E19.30544
G1 X94.118 Y16.794 E19.33101
G1 X94.608 Y16.33 E19.35345
G1 X95.193 Y15.831 E19.37903
G1 X95.827 Y15.395 E19.40462
G1 X96.503 Y15.027 E19.43022
G1 X96.981 Y14.819 E19.44756
G1 X97.781 Y14.546 E19.47567
G1 X98.532 Y14.379 E19.50126
G1 X99.296 Y14.29 E19.52684
G1 X192.792 Y14.278 E22.63653
G1 X195.848 Y14.279 E22.73817
G1 X196.617 Y14.319 E22.76379
G1 X197.376 Y14.439 E22.78934
G1 X198.12 Y14.637 E22.81495
G1 X198.594 Y14.808 E22.83171
G1 X199.368 Y15.161 E22.86001
G1 X200.029 Y15.554 E22.88558
G1 X200.645 Y16.013 E22.91113
G1 X201.086 Y16.409 E22.93085
G1 X201.832 Y17.136 E22.96549
G1 X202.434 Y17.799 E22.99528
G1 X203.111 Y18.641 E23.03121
G1 X203.599 Y19.324 E23.05913
G1 X204.056 Y20.047 E23.08758
G1 X204.433 Y20.718 E23.11318
G1 X204.738 Y21.424 E23.13876
G1 X204.968 Y22.158 E23.16434
G1 X205.12 Y22.912 E23.18992
G1 X205.201 Y24 E23.22621
G1 X205.226 Y175.598 E28.26838
G1 X205.225 Y187.76 E28.67289
G1 X205.185 Y188.528 E28.69847
G1 X205.065 Y189.288 E28.72406
G1 X204.868 Y190.031 E28.74963
G1 X204.65 Y190.618 E28.77045
G1 X204.286 Y191.385 E28.79869
G1 X203.882 Y192.04 E28.82429
G1 X203.412 Y192.649 E28.84987
G1 X202.897 Y193.192 E28.87476
G1 X202.414 Y193.652 E28.89695
G1 X201.729 Y194.229 E28.92674
G1 X201.287 Y194.558 E28.94506
G1 X200.647 Y194.985 E28.97065
G1 X199.967 Y195.342 E28.9962
G1 X199.252 Y195.628 E29.02181
G1 X198.512 Y195.837 E29.04739
G1 X197.754 Y195.969 E29.07298
G1 X196.929 Y196.022 E29.10047
G1 X193.456 Y196.05 E29.21599
G1 X101.574 Y196.051 E32.272
G1 X100.806 Y196.011 E32.29757
G1 X100.046 Y195.892 E32.32316
G1 X99.303 Y195.694 E32.34874
G1 X98.584 Y195.42 E32.37433
G1 X97.898 Y195.073 E32.3999
G1 X97.286 Y194.682 E32.42405
G1 X96.805 Y194.34 E32.44368
G1 X96.202 Y193.862 E32.46927
G1 X95.153 Y192.848 E32.5178
G1 X94.566 Y192.201 E32.54686
G1 X93.889 Y191.359 E32.58279
G1 X93.401 Y190.676 E32.61071
G1 X92.944 Y189.953 E32.63916
G1 X92.567 Y189.282 E32.66476
G1 X92.262 Y188.576 E32.69034
G1 X92.032 Y187.842 E32.71592
G1 X91.88 Y187.088 E32.7415
G1 X91.799 Y186 E32.77779
G1 X91.774 Y34.402 E37.81996
G1 X91.775 Y22.24 E38.22447
G1 X91.815 Y21.472 E38.25005
G1 X91.935 Y20.712 E38.27564
G0 F3600 X92.335 Y20.755
G1 F1200 X92.532 Y20.033 E38.30053
G1 X92.719 Y19.536 E38.31819
G1 X93.075 Y18.789 E38.34571
G1 X93.471 Y18.154 E38.3706
G1 X93.932 Y17.565 E38.39548
G1 X94.393 Y17.084 E38.41764
G1 X94.883 Y16.62 E38.44009
G1 X95.453 Y16.136 E38.46496
G1 X96.071 Y15.715 E38.48983
G1 X96.731 Y15.362 E38.51472
G1 X97.199 Y15.163 E38.53164
G1 X97.908 Y14.926 E38.5565
G1 X98.639 Y14.766 E38.58139
G1 X99.383 Y14.686 E38.60628
G1 X192.792 Y14.678 E41.71307
G1 X195.848 Y14.679 E41.81472
G1 X196.595 Y14.719 E41.8396
G1 X197.334 Y14.839 E41.8645
G1 X198.055 Y15.037 E41.88937
G1 X199.199 Y15.524 E41.93072
G1 X199.841 Y15.909 E41.95562
G1 X200.437 Y16.361 E41.9805
G1 X201.552 Y17.423 E42.03171
G1 X202.122 Y18.05 E42.0599
G1 X202.799 Y18.892 E42.09583
G1 X203.261 Y19.538 E42.12225
G1 X203.718 Y20.261 E42.15069
G1 X204.083 Y20.914 E42.17558
G1 X204.377 Y21.602 E42.20046
G1 X204.595 Y22.317 E42.22532
G1 X204.736 Y23.052 E42.25021
G1 X204.801 Y24 E42.28182
G1 X204.826 Y175.598 E47.32399
G1 X204.825 Y187.76 E47.7285
G1 X204.785 Y188.507 E47.75338
G1 X204.665 Y189.245 E47.77825
G1 X204.468 Y189.967 E47.80314
G1 X204.281 Y190.464 E47.8208
G1 X203.925 Y191.211 E47.84832
G1 X203.529 Y191.846 E47.87321
G1 X203.068 Y192.435 E47.89809
G1 X202.622 Y192.902 E47.91957
G1 X202.139 Y193.362 E47.94175
G1 X201.491 Y193.908 E47.96994
G1 X201.049 Y194.237 E47.98826
G1 X200.426 Y194.651 E48.01314
G1 X199.762 Y194.996 E48.03803
G1 X199.065 Y195.269 E48.06293
G1 X198.343 Y195.465 E48.08781
G1 X197.605 Y195.583 E48.11267
G1 X196.925 Y195.622 E48.13532
G1 X193.452 Y195.65 E48.25084
G1 X101.574 Y195.651 E51.30671
G1 X100.827 Y195.611 E51.33159
G1 X100.089 Y195.492 E51.35646
G1 X99.367 Y195.294 E51.38136
G1 X98.671 Y195.021 E51.40622
G1 X98.008 Y194.674 E51.43111
G1 X97.518 Y194.356 E51.45054
G1 X97.037 Y194.014 E51.47017
G1 X96.193 Y193.308 E51.50677
G1 X95.433 Y192.563 E51.54217
G1 X94.878 Y191.95 E51.56967
G1 X94.201 Y191.108 E51.6056
G1 X93.739 Y190.462 E51.63202
G1 X93.282 Y189.739 E51.66047
G1 X92.917 Y189.086 E51.68535
G1 X92.623 Y188.398 E51.71023
G1 X92.405 Y187.683 E51.7351
G1 X92.264 Y186.948 E51.75999
G1 X92.199 Y186 E51.79159
G1 X92.174 Y34.402 E56.83376
G1 X92.175 Y22.24 E57.23827
G1 X92.215 Y21.493 E57.26315
G1 X92.335 Y20.755 E57.28802
G0 F3600 X92.735 Y20.799
G1 F1200 X92.932 Y20.1 E57.31218
G1 X93.119 Y19.617 E57.3294
G1 X93.436 Y18.963 E57.35358
G1 X93.823 Y18.349 E57.37772
G1 X94.275 Y17.78 E57.40189
G1 X94.668 Y17.375 E57.42065
G1 X95.158 Y16.911 E57.4431
G1 X95.712 Y16.441 E57.46726
G1 X96.314 Y16.035 E57.49141
G1 X97.275 Y15.563 E57.52702
G1 X98.035 Y15.306 E57.55371
G1 X98.745 Y15.155 E57.57785
G1 X99.767 Y15.075 E57.61195
G1 X192.792 Y15.078 E60.70597
G1 X195.848 Y15.079 E60.80761
G1 X196.573 Y15.119 E60.83176
G1 X197.29 Y15.239 E60.85594
G1 X198.297 Y15.551 E60.89101
G1 X199.031 Y15.888 E60.91787
G1 X199.652 Y16.264 E60.94202
G1 X200.227 Y16.707 E60.96616
G1 X201.273 Y17.709 E61.01433
G1 X201.811 Y18.3 E61.04092
G1 X202.488 Y19.142 E61.07685
G1 X202.923 Y19.752 E61.10177
G1 X203.38 Y20.475 E61.13022
G1 X203.734 Y21.109 E61.15437
G1 X204.016 Y21.778 E61.17852
G1 X204.222 Y22.475 E61.20269
G1 X204.351 Y23.19 E61.22686
G1 X204.401 Y24 E61.25385
G1 X204.426 Y175.598 E66.29602
G1 X204.425 Y187.76 E66.70053
G1 X204.385 Y188.485 E66.72468
G1 X204.265 Y189.201 E66.74882
G1 X204.068 Y189.9 E66.77298
G1 X203.881 Y190.383 E66.79021
G1 X203.564 Y191.037 E66.81438
G1 X203.177 Y191.651 E66.83852
G1 X202.725 Y192.22 E66.86269
G1 X202.346 Y192.612 E66.88082
G1 X201.863 Y193.072 E66.90301
G1 X201.252 Y193.587 E66.92958
G1 X200.81 Y193.916 E66.94791
G1 X200.204 Y194.317 E66.97208
G1 X199.558 Y194.649 E66.99624
G1 X198.879 Y194.908 E67.02041
G1 X198.177 Y195.091 E67.04454
G1 X197.458 Y195.196 E67.0687
G1 X196.922 Y195.222 E67.08655
G1 X193.449 Y195.25 E67.20207
G1 X101.574 Y195.251 E70.25784
G1 X100.849 Y195.211 E70.28199
G1 X100.132 Y195.092 E70.30617
G1 X99.433 Y194.894 E70.33033
G1 X98.76 Y194.621 E70.35449
G1 X98.121 Y194.276 E70.37864
G1 X97.268 Y193.688 E70.4131
G1 X96.473 Y193.022 E70.44759
G1 X95.713 Y192.277 E70.48299
G1 X95.189 Y191.7 E70.50891
G1 X94.512 Y190.858 E70.54485
G1 X94.077 Y190.248 E70.56977
G1 X93.62 Y189.525 E70.59822
G1 X93.266 Y188.891 E70.62237
G1 X92.984 Y188.222 E70.64651
G1 X92.778 Y187.525 E70.67069
G1 X92.649 Y186.81 E70.69485
G1 X92.599 Y186 E70.72184
G1 X92.574 Y34.402 E75.76401
G1 X92.575 Y22.24 E76.16852
G1 X92.615 Y21.515 E76.19267
G1 X92.735 Y20.799 E76.21682
G0 F3600 X93.134 Y20.844
G1 F1200 X93.457 Y19.845 E76.25174
G1 X93.796 Y19.139 E76.27779
G1 X94.174 Y18.545 E76.30121
G1 X94.617 Y17.998 E76.32462
G1 X95.433 Y17.201 E76.36256
G1 X95.971 Y16.747 E76.38597
G1 X96.557 Y16.357 E76.40938
G1 X97.421 Y15.935 E76.44136
G1 X98.161 Y15.687 E76.46732
G1 X98.85 Y15.543 E76.49073
G1 X99.767 Y15.475 E76.52132
G1 X192.792 Y15.478 E79.61534
G1 X195.848 Y15.479 E79.71698
G1 X196.551 Y15.519 E79.7404
G1 X197.245 Y15.639 E79.76383
G1 X198.149 Y15.922 E79.79533
G1 X198.861 Y16.251 E79.82142
G1 X199.461 Y16.619 E79.84483
G1 X200.248 Y17.269 E79.87878
G1 X200.994 Y17.996 E79.91343
G1 X201.499 Y18.551 E79.93838
G1 X202.176 Y19.393 E79.97432
G1 X202.585 Y19.965 E79.99771
G1 X203.042 Y20.688 E80.02616
G1 X203.384 Y21.304 E80.04959
G1 X203.653 Y21.954 E80.07299
G1 X203.848 Y22.631 E80.09642
G1 X203.964 Y23.325 E80.11982
G1 X204.001 Y24 E80.14231
G1 X204.026 Y175.598 E85.18448
G1 X204.025 Y187.76 E85.58899
G1 X203.985 Y188.462 E85.61237
G1 X203.866 Y189.156 E85.63579
G1 X203.543 Y190.155 E85.67071
G1 X203.204 Y190.861 E85.69676
G1 X202.826 Y191.455 E85.72018
G1 X202.383 Y192.002 E85.74359
G1 X201.587 Y192.783 E85.78068
G1 X201.013 Y193.266 E85.80563
G1 X200.571 Y193.595 E85.82396
G1 X199.983 Y193.983 E85.84739
G1 X199.355 Y194.302 E85.87082
G1 X198.696 Y194.547 E85.8942
G1 X198.012 Y194.716 E85.91763
G1 X197.314 Y194.806 E85.94104
G1 X193.446 Y194.85 E86.0697
G1 X101.574 Y194.851 E89.12538
G1 X100.871 Y194.811 E89.1488
G1 X100.177 Y194.692 E89.17222
G1 X99.502 Y194.494 E89.19561
G1 X98.853 Y194.222 E89.21902
G1 X97.981 Y193.704 E89.25275
G1 X97.5 Y193.362 E89.27238
G1 X96.753 Y192.737 E89.30478
G1 X95.993 Y191.992 E89.34017
G1 X95.501 Y191.449 E89.36454
G1 X94.824 Y190.607 E89.40048
G1 X94.415 Y190.035 E89.42387
G1 X93.958 Y189.312 E89.45231
G1 X93.616 Y188.696 E89.47575
G1 X93.347 Y188.046 E89.49915
G1 X93.152 Y187.369 E89.52258
G1 X93.036 Y186.675 E89.54598
G1 X92.999 Y186 E89.56847
G1 X92.974 Y34.402 E94.61064
G1 X92.975 Y22.24 E95.01515
G1 X93.015 Y21.538 E95.03853
G1 X93.134 Y20.844 E95.06195
G0 F3600 X93.534 Y20.89
G1 F1200 X93.825 Y20 E95.09309
G1 X94.156 Y19.314 E95.11843
G1 X94.525 Y18.742 E95.14107
G1 X94.959 Y18.217 E95.16372
G1 X95.708 Y17.492 E95.19839
G1 X96.229 Y17.053 E95.22105
G1 X96.798 Y16.679 E95.2437
G1 X97.568 Y16.307 E95.27214
G1 X98.286 Y16.067 E95.29732
G1 X98.954 Y15.932 E95.31999
G1 X99.767 Y15.875 E95.3471
G1 X192.792 Y15.878 E98.44112
G1 X195.848 Y15.879 E98.54276
G1 X196.528 Y15.919 E98.56542
G1 X197.198 Y16.039 E98.58806
G1 X198 Y16.294 E98.61605
G1 X198.691 Y16.613 E98.64136
G1 X199.269 Y16.973 E98.66401
G1 X199.969 Y17.555 E98.69429
G1 X200.715 Y18.282 E98.72894
G1 X201.187 Y18.802 E98.75229
G1 X201.864 Y19.644 E98.78823
G1 X202.247 Y20.179 E98.81011
G1 X202.704 Y20.902 E98.83856
G1 X203.033 Y21.498 E98.8612
G1 X203.29 Y22.128 E98.88383
G1 X203.472 Y22.785 E98.90651
G1 X203.575 Y23.458 E98.92915
G1 X203.601 Y24 E98.9472
G1 X203.626 Y175.598 E103.98937
G1 X203.625 Y187.759 E104.39385
G1 X203.585 Y188.439 E104.4165
G1 X203.466 Y189.11 E104.43917
G1 X203.175 Y190 E104.47031
G1 X202.844 Y190.686 E104.49565
G1 X202.475 Y191.258 E104.51829
G1 X202.041 Y191.783 E104.54094
G1 X201.311 Y192.493 E104.57481
G1 X200.774 Y192.946 E104.59818
G1 X200.332 Y193.275 E104.6165
G1 X199.763 Y193.648 E104.63913
G1 X199.154 Y193.953 E104.66179
G1 X198.514 Y194.184 E104.68442
G1 X197.85 Y194.338 E104.70709
G1 X196.916 Y194.422 E104.73828
G1 X193.443 Y194.45 E104.8538
G1 X101.574 Y194.451 E107.90937
G1 X100.894 Y194.411 E107.93203
G1 X100.224 Y194.292 E107.95466
G1 X99.572 Y194.095 E107.97731
G1 X98.948 Y193.823 E107.99995
G1 X98.213 Y193.378 E108.02853
G1 X97.732 Y193.036 E108.04816
G1 X97.033 Y192.451 E108.07848
G1 X96.273 Y191.706 E108.11387
G1 X95.813 Y191.198 E108.13667
G1 X95.136 Y190.356 E108.1726
G1 X94.753 Y189.821 E108.19449
G1 X94.296 Y189.098 E108.22294
G1 X93.967 Y188.502 E108.24558
G1 X93.71 Y187.872 E108.26821
G1 X93.528 Y187.215 E108.29088
G1 X93.425 Y186.542 E108.31353
G1 X93.399 Y186 E108.33158
G1 X93.374 Y34.402 E113.37375
G1 X93.375 Y22.241 E113.77822
G1 X93.415 Y21.561 E113.80088
G1 X93.534 Y20.89 E113.82354
G0 F3600 X93.934 Y20.939
G1 F1200 X94.194 Y20.155 E113.85102
G1 X94.516 Y19.491 E113.87556
G1 X94.875 Y18.941 E113.89741
G1 X95.493 Y18.246 E113.92834
G1 X95.983 Y17.782 E113.95078
G1 X96.487 Y17.36 E113.97265
G1 X97.038 Y17.003 E113.99448
G1 X97.715 Y16.68 E114.01943
G1 X98.411 Y16.448 E114.04383
G1 X99.055 Y16.322 E114.06566
G1 X99.767 Y16.275 E114.08939
G1 X192.792 Y16.278 E117.18342
G1 X195.848 Y16.279 E117.28506
G1 X196.504 Y16.319 E117.30692
G1 X197.15 Y16.439 E117.32877
G1 X197.852 Y16.665 E117.3533
G1 X198.521 Y16.976 E117.37784
G1 X199.076 Y17.327 E117.39968
G1 X199.69 Y17.842 E117.42633
G1 X200.436 Y18.569 E117.46098
G1 X200.875 Y19.052 E117.48269
G1 X201.552 Y19.894 E117.51862
G1 X201.909 Y20.393 E117.53903
G1 X202.366 Y21.116 E117.56748
G1 X202.682 Y21.691 E117.5893
G1 X202.927 Y22.301 E117.61116
G1 X203.095 Y22.936 E117.63301
G1 X203.185 Y23.587 E117.65487
G1 X203.226 Y175.598 E122.71078
G1 X203.225 Y187.759 E123.11525
G1 X203.185 Y188.415 E123.13711
G1 X203.066 Y189.061 E123.15896
G1 X202.806 Y189.845 E123.18643
G1 X202.484 Y190.509 E123.21098
G1 X202.125 Y191.059 E123.23282
G1 X201.518 Y191.743 E123.26324
G1 X201.035 Y192.203 E123.28542
G1 X200.535 Y192.625 E123.30718
G1 X200.093 Y192.954 E123.32551
G1 X199.543 Y193.313 E123.34736
G1 X198.954 Y193.603 E123.36919
G1 X198.334 Y193.82 E123.39104
G1 X197.692 Y193.959 E123.41289
G1 X196.913 Y194.022 E123.43888
G1 X193.44 Y194.05 E123.5544
G1 X101.574 Y194.051 E126.60987
G1 X100.918 Y194.011 E126.63173
G1 X100.272 Y193.892 E126.65358
G1 X99.645 Y193.695 E126.67544
G1 X99.047 Y193.423 E126.69729
G1 X98.445 Y193.052 E126.72081
G1 X97.964 Y192.71 E126.74044
G1 X97.313 Y192.165 E126.76868
G1 X96.553 Y191.42 E126.80407
G1 X96.125 Y190.948 E126.82527
G1 X95.448 Y190.106 E126.8612
G1 X95.091 Y189.607 E126.88161
G1 X94.634 Y188.884 E126.91006
G1 X94.318 Y188.309 E126.93188
G1 X94.073 Y187.699 E126.95374
